Newaita-dark/apps/24/smtube.svg

<?xml version="1.0" encoding="UTF-8"?>
<svg xmlns="http://www.w3.org/2000/svg" xmlns:xlink="http://www.w3.org/1999/xlink" width="24pt" height="24pt" viewBox="0 0 24 24" version="1.1">
<defs>
<linearGradient id="linear0" gradientUnits="userSpaceOnUse" x1="254" y1="233.5" x2="254" y2="254.666672" gradientTransform="matrix(0.0468795,0,0,0.0468795,-0.0000028613,7.598384)">
<stop offset="0" style="stop-color:rgb(0%,0%,0%);stop-opacity:0.27451;"/>
<stop offset="1" style="stop-color:rgb(0%,0%,0%);stop-opacity:0;"/>
</linearGradient>
<radialGradient id="radial0" gradientUnits="userSpaceOnUse" cx="450.908936" cy="189.579361" fx="450.908936" fy="189.579361" r="21.166656" gradientTransform="matrix(0.000000130628,-0.0585994,-0.105479,-0.0000000761539,39.842197,45.215794)">
<stop offset="0" style="stop-color:rgb(0%,0%,0%);stop-opacity:0.313725;"/>
<stop offset="0.222222" style="stop-color:rgb(0%,0%,0%);stop-opacity:0.27451;"/>
<stop offset="1" style="stop-color:rgb(0%,0%,0%);stop-opacity:0;"/>
</radialGradient>
<radialGradient id="radial1" gradientUnits="userSpaceOnUse" cx="450.908936" cy="189.579361" fx="450.908936" fy="189.579361" r="21.166656" gradientTransform="matrix(-0.000000130628,0.0585994,0.105479,0.0000000761539,-15.90339,-8.126314)">
<stop offset="0" style="stop-color:rgb(0%,0%,0%);stop-opacity:0.313725;"/>
<stop offset="0.222222" style="stop-color:rgb(0%,0%,0%);stop-opacity:0.27451;"/>
<stop offset="1" style="stop-color:rgb(0%,0%,0%);stop-opacity:0;"/>
</radialGradient>
<radialGradient id="radial2" gradientUnits="userSpaceOnUse" cx="450.908936" cy="189.579361" fx="450.908936" fy="189.579361" r="21.166656" gradientTransform="matrix(-0.000000130628,-0.0585994,0.105479,-0.0000000761539,-15.90339,45.215794)">
<stop offset="0" style="stop-color:rgb(0%,0%,0%);stop-opacity:0.313725;"/>
<stop offset="0.222222" style="stop-color:rgb(0%,0%,0%);stop-opacity:0.27451;"/>
<stop offset="1" style="stop-color:rgb(0%,0%,0%);stop-opacity:0;"/>
</radialGradient>
<radialGradient id="radial3" gradientUnits="userSpaceOnUse" cx="450.908936" cy="189.579361" fx="450.908936" fy="189.579361" r="21.166656" gradientTransform="matrix(0.000000130628,0.0585994,-0.105479,0.0000000761539,39.842196,-8.126315)">
<stop offset="0" style="stop-color:rgb(0%,0%,0%);stop-opacity:0.313725;"/>
<stop offset="0.222222" style="stop-color:rgb(0%,0%,0%);stop-opacity:0.27451;"/>
<stop offset="1" style="stop-color:rgb(0%,0%,0%);stop-opacity:0;"/>
</radialGradient>
<linearGradient id="linear1" gradientUnits="userSpaceOnUse" x1="254" y1="191.166672" x2="254" y2="-126.333344" gradientTransform="matrix(0.0468795,0,0,0.0468795,0,10.079087)">
<stop offset="0" style="stop-color:rgb(25.882353%,64.705882%,96.078431%);stop-opacity:1;"/>
<stop offset="1" style="stop-color:rgb(39.215686%,70.980392%,96.470588%);stop-opacity:1;"/>
</linearGradient>
<linearGradient id="linear2" gradientUnits="userSpaceOnUse" x1="254" y1="53.583332" x2="254" y2="-105.166656" gradientTransform="matrix(0.0468795,0,0,0.0468795,0.0176603,12.80401)">
<stop offset="0" style="stop-color:rgb(87.843137%,87.843137%,87.843137%);stop-opacity:1;"/>
<stop offset="1" style="stop-color:rgb(98.039216%,98.039216%,98.039216%);stop-opacity:1;"/>
</linearGradient>
</defs>
<g id="surface1">
<path style=" stroke:none;fill-rule:nonzero;fill:url(#linear0);" d="M 3.84375 18.542969 L 20.09375 18.542969 L 20.09375 19.535156 L 3.84375 19.535156 Z M 3.84375 18.542969 "/>
<path style=" stroke:none;fill-rule:nonzero;fill:url(#radial0);" d="M 20.09375 18.542969 L 22.078125 18.542969 L 22.078125 17.550781 L 20.09375 17.550781 Z M 20.09375 18.542969 "/>
<path style=" stroke:none;fill-rule:nonzero;fill:url(#radial1);" d="M 3.84375 18.542969 L 1.859375 18.542969 L 1.859375 19.535156 L 3.84375 19.535156 Z M 3.84375 18.542969 "/>
<path style=" stroke:none;fill-rule:nonzero;fill:url(#radial2);" d="M 3.84375 18.542969 L 1.859375 18.542969 L 1.859375 17.550781 L 3.84375 17.550781 Z M 3.84375 18.542969 "/>
<path style=" stroke:none;fill-rule:nonzero;fill:url(#radial3);" d="M 20.09375 18.542969 L 22.078125 18.542969 L 22.078125 19.535156 L 20.09375 19.535156 Z M 20.09375 18.542969 "/>
<path style=" stroke:none;fill-rule:nonzero;fill:url(#linear1);" d="M 21.832031 6.636719 C 21.589844 5.75 20.890625 5.046875 20 4.808594 C 18.375 4.363281 11.878906 4.363281 11.878906 4.363281 C 11.878906 4.363281 5.382812 4.363281 3.757812 4.789062 C 2.886719 5.03125 2.167969 5.75 1.925781 6.636719 C 1.5 8.261719 1.5 11.628906 1.5 11.628906 C 1.5 11.628906 1.5 15.015625 1.925781 16.621094 C 2.167969 17.511719 2.867188 18.214844 3.757812 18.453125 C 5.398438 18.898438 11.878906 18.898438 11.878906 18.898438 C 11.878906 18.898438 18.375 18.898438 20 18.46875 C 20.890625 18.230469 21.589844 17.527344 21.832031 16.640625 C 22.257812 15.015625 22.257812 11.648438 22.257812 11.648438 C 22.257812 11.648438 22.273438 8.261719 21.832031 6.636719 Z M 21.832031 6.636719 "/>
<path style=" stroke:none;fill-rule:nonzero;fill:rgb(100%,100%,100%);fill-opacity:0.392157;" d="M 11.878906 4.363281 C 11.878906 4.363281 5.382812 4.363281 3.757812 4.789062 C 2.886719 5.03125 2.167969 5.75 1.925781 6.636719 C 1.5 8.261719 1.5 11.628906 1.5 11.628906 C 1.5 11.628906 1.5 11.691406 1.5 11.800781 C 1.507812 11.101562 1.558594 8.386719 1.925781 6.976562 C 2.167969 6.085938 2.886719 5.371094 3.757812 5.128906 C 5.382812 4.703125 11.878906 4.703125 11.878906 4.703125 C 11.878906 4.703125 18.375 4.703125 20 5.148438 C 20.890625 5.386719 21.589844 6.085938 21.832031 6.976562 C 22.207031 8.355469 22.253906 10.992188 22.257812 11.761719 C 22.257812 11.703125 22.257812 11.648438 22.257812 11.648438 C 22.257812 11.648438 22.273438 8.261719 21.832031 6.636719 C 21.589844 5.75 20.890625 5.046875 20 4.808594 C 18.375 4.363281 11.878906 4.363281 11.878906 4.363281 Z M 11.878906 4.363281 "/>
<path style=" stroke:none;fill-rule:nonzero;fill:rgb(0%,0%,0%);fill-opacity:0.235294;" d="M 11.878906 18.917969 C 11.878906 18.917969 5.382812 18.917969 3.757812 18.488281 C 2.886719 18.25 2.167969 17.53125 1.925781 16.644531 C 1.5 15.019531 1.5 11.648438 1.5 11.648438 C 1.5 11.648438 1.5 11.585938 1.5 11.480469 C 1.507812 12.175781 1.558594 14.894531 1.925781 16.304688 C 2.167969 17.191406 2.886719 17.910156 3.757812 18.148438 C 5.382812 18.578125 11.878906 18.578125 11.878906 18.578125 C 11.878906 18.578125 18.375 18.578125 20 18.132812 C 20.890625 17.894531 21.589844 17.191406 21.832031 16.304688 C 22.207031 14.925781 22.253906 12.289062 22.257812 11.515625 C 22.257812 11.578125 22.257812 11.632812 22.257812 11.632812 C 22.257812 11.632812 22.273438 15.019531 21.832031 16.644531 C 21.589844 17.53125 20.890625 18.234375 20 18.472656 C 18.375 18.917969 11.878906 18.917969 11.878906 18.917969 Z M 11.878906 18.917969 "/>
<path style=" stroke:none;fill-rule:nonzero;fill:url(#linear2);" d="M 9.957031 7.875 C 9.679688 7.867188 9.445312 8.089844 9.445312 8.371094 L 9.445312 14.820312 C 9.445312 15.203125 9.863281 15.4375 10.191406 15.246094 L 15.648438 12.019531 C 15.972656 11.828125 15.972656 11.359375 15.648438 11.167969 L 10.191406 7.945312 C 10.121094 7.902344 10.039062 7.878906 9.957031 7.875 Z M 9.957031 7.875 "/>
<path style=" stroke:none;fill-rule:nonzero;fill:rgb(100%,100%,100%);fill-opacity:0.235294;" d="M 9.929688 7.875 C 9.664062 7.882812 9.445312 8.097656 9.445312 8.371094 L 9.445312 8.617188 C 9.445312 8.335938 9.679688 8.113281 9.957031 8.121094 C 10.039062 8.125 10.121094 8.148438 10.191406 8.191406 L 15.648438 11.414062 C 15.769531 11.488281 15.847656 11.597656 15.875 11.71875 C 15.925781 11.515625 15.851562 11.289062 15.648438 11.167969 L 10.191406 7.945312 C 10.121094 7.902344 10.039062 7.878906 9.957031 7.875 C 9.949219 7.875 9.941406 7.875 9.929688 7.875 Z M 9.929688 7.875 "/>
<path style=" stroke:none;fill-rule:nonzero;fill:rgb(0%,0%,0%);fill-opacity:0.235294;" d="M 9.929688 15.316406 C 9.664062 15.3125 9.445312 15.09375 9.445312 14.824219 L 9.445312 14.578125 C 9.445312 14.855469 9.679688 15.078125 9.957031 15.070312 C 10.039062 15.066406 10.121094 15.042969 10.191406 15.003906 L 15.648438 11.777344 C 15.769531 11.707031 15.847656 11.59375 15.875 11.476562 C 15.925781 11.675781 15.851562 11.902344 15.648438 12.023438 L 10.191406 15.246094 C 10.121094 15.289062 10.039062 15.3125 9.957031 15.316406 C 9.949219 15.316406 9.941406 15.316406 9.929688 15.316406 Z M 9.929688 15.316406 "/>
<path style=" stroke:none;fill-rule:nonzero;fill:rgb(12.941177%,12.941177%,12.941177%);fill-opacity:1;" d="M 9.960938 7.804688 C 9.640625 7.796875 9.375 8.050781 9.375 8.371094 L 9.375 14.820312 C 9.375 15.253906 9.855469 15.527344 10.226562 15.304688 L 15.683594 12.082031 C 16.050781 11.863281 16.050781 11.324219 15.683594 11.109375 L 10.226562 7.882812 C 10.144531 7.835938 10.054688 7.808594 9.960938 7.804688 Z M 9.953125 7.945312 C 10.027344 7.949219 10.09375 7.96875 10.15625 8.003906 L 15.613281 11.230469 C 15.894531 11.394531 15.894531 11.792969 15.613281 11.960938 L 10.15625 15.183594 C 9.871094 15.351562 9.515625 15.152344 9.515625 14.820312 L 9.515625 8.371094 C 9.515625 8.128906 9.714844 7.9375 9.953125 7.945312 Z M 9.953125 7.945312 "/>
<path style=" stroke:none;fill-rule:nonzero;fill:rgb(12.941177%,12.941177%,12.941177%);fill-opacity:1;" d="M 11.878906 4.277344 C 11.878906 4.277344 10.253906 4.277344 8.425781 4.332031 C 6.597656 4.382812 4.574219 4.488281 3.734375 4.707031 C 2.832031 4.957031 2.09375 5.695312 1.84375 6.613281 L 1.84375 6.617188 C 1.628906 7.441406 1.523438 8.691406 1.46875 9.738281 C 1.414062 10.785156 1.414062 11.628906 1.414062 11.628906 C 1.414062 11.628906 1.414062 12.476562 1.46875 13.527344 C 1.523438 14.578125 1.628906 15.828125 1.84375 16.644531 C 2.09375 17.5625 2.816406 18.289062 3.734375 18.535156 C 4.582031 18.765625 6.605469 18.871094 8.429688 18.925781 C 10.257812 18.980469 11.878906 18.984375 11.878906 18.984375 C 11.878906 18.984375 13.503906 18.984375 15.332031 18.929688 C 17.160156 18.875 19.183594 18.773438 20.023438 18.550781 C 20.941406 18.304688 21.664062 17.582031 21.914062 16.664062 L 21.914062 16.660156 C 22.128906 15.835938 22.234375 14.585938 22.289062 13.539062 C 22.34375 12.492188 22.34375 11.648438 22.34375 11.648438 C 22.34375 11.648438 22.347656 10.800781 22.296875 9.746094 C 22.246094 8.695312 22.140625 7.441406 21.914062 6.613281 C 21.664062 5.695312 20.941406 4.972656 20.023438 4.726562 C 19.183594 4.496094 17.164062 4.390625 15.332031 4.332031 C 13.503906 4.277344 11.878906 4.277344 11.878906 4.277344 Z M 11.878906 4.449219 C 11.878906 4.449219 13.503906 4.449219 15.328125 4.503906 C 17.152344 4.558594 19.195312 4.675781 19.976562 4.890625 C 20.839844 5.121094 21.515625 5.800781 21.746094 6.660156 C 21.964844 7.457031 22.074219 8.707031 22.125 9.753906 C 22.175781 10.800781 22.171875 11.648438 22.171875 11.648438 C 22.171875 11.648438 22.171875 12.488281 22.117188 13.53125 C 22.066406 14.574219 21.957031 15.820312 21.746094 16.617188 C 21.515625 17.476562 20.839844 18.15625 19.980469 18.386719 C 19.195312 18.59375 17.152344 18.703125 15.328125 18.757812 C 13.503906 18.8125 11.878906 18.8125 11.878906 18.8125 C 11.878906 18.8125 10.261719 18.8125 8.4375 18.757812 C 6.613281 18.699219 4.574219 18.585938 3.78125 18.371094 C 2.917969 18.136719 2.242188 17.460938 2.011719 16.601562 C 1.800781 15.8125 1.691406 14.5625 1.640625 13.519531 C 1.585938 12.472656 1.585938 11.628906 1.585938 11.628906 C 1.585938 11.628906 1.585938 10.789062 1.640625 9.746094 C 1.691406 8.703125 1.800781 7.457031 2.011719 6.660156 C 2.242188 5.800781 2.9375 5.105469 3.78125 4.875 C 4.566406 4.667969 6.605469 4.554688 8.429688 4.503906 C 10.253906 4.449219 11.878906 4.449219 11.878906 4.449219 Z M 11.878906 4.449219 "/>
</g>
</svg>

<svg xmlns="http://www.w3.org/2000/svg" width="32" height="32" viewBox="0 0 24 24"><defs><linearGradient id="a" gradientUnits="userSpaceOnUse" x1="254" y1="233.5" x2="254" y2="254.667" gradientTransform="matrix(.04688 0 0 .04688 0 7.598)"><stop offset="0" stop-opacity=".275"/><stop offset="1" stop-opacity="0"/></linearGradient><radialGradient id="b" gradientUnits="userSpaceOnUse" cx="450.909" cy="189.579" fx="450.909" fy="189.579" r="21.167" gradientTransform="matrix(0 -.0586 -.10548 0 39.842 45.216)"><stop offset="0" stop-opacity=".314"/><stop offset=".222" stop-opacity=".275"/><stop offset="1" stop-opacity="0"/></radialGradient><radialGradient id="c" gradientUnits="userSpaceOnUse" cx="450.909" cy="189.579" fx="450.909" fy="189.579" r="21.167" gradientTransform="matrix(0 .0586 .10548 0 -15.903 -8.126)"><stop offset="0" stop-opacity=".314"/><stop offset=".222" stop-opacity=".275"/><stop offset="1" stop-opacity="0"/></radialGradient><radialGradient id="d" gradientUnits="userSpaceOnUse" cx="450.909" cy="189.579" fx="450.909" fy="189.579" r="21.167" gradientTransform="matrix(0 -.0586 .10548 0 -15.903 45.216)"><stop offset="0" stop-opacity=".314"/><stop offset=".222" stop-opacity=".275"/><stop offset="1" stop-opacity="0"/></radialGradient><radialGradient id="e" gradientUnits="userSpaceOnUse" cx="450.909" cy="189.579" fx="450.909" fy="189.579" r="21.167" gradientTransform="matrix(0 .0586 -.10548 0 39.842 -8.126)"><stop offset="0" stop-opacity=".314"/><stop offset=".222" stop-opacity=".275"/><stop offset="1" stop-opacity="0"/></radialGradient><linearGradient id="f" gradientUnits="userSpaceOnUse" x1="254" y1="191.167" x2="254" y2="-126.333" gradientTransform="matrix(.04688 0 0 .04688 0 10.08)"><stop offset="0" stop-color="#42a5f5"/><stop offset="1" stop-color="#64b5f6"/></linearGradient><linearGradient id="g" gradientUnits="userSpaceOnUse" x1="254" y1="53.583" x2="254" y2="-105.167" gradientTransform="matrix(.04688 0 0 .04688 .018 12.804)"><stop offset="0" stop-color="#e0e0e0"/><stop offset="1" stop-color="#fafafa"/></linearGradient></defs><path d="M3.844 18.543h16.25v.992H3.844zm0 0" fill="url(#a)"/><path d="M20.094 18.543h1.984v-.992h-1.984zm0 0" fill="url(#b)"/><path d="M3.844 18.543H1.859v.992h1.985zm0 0" fill="url(#c)"/><path d="M3.844 18.543H1.859v-.992h1.985zm0 0" fill="url(#d)"/><path d="M20.094 18.543h1.984v.992h-1.984zm0 0" fill="url(#e)"/><path d="M21.832 6.637A2.607 2.607 0 0 0 20 4.809c-1.625-.446-8.121-.446-8.121-.446s-6.496 0-8.121.426c-.871.242-1.59.961-1.832 1.848C1.5 8.262 1.5 11.629 1.5 11.629s0 3.387.426 4.992c.242.89.941 1.594 1.832 1.832 1.64.445 8.12.445 8.12.445s6.497 0 8.122-.43a2.607 2.607 0 0 0 1.832-1.827c.426-1.625.426-4.993.426-4.993s.015-3.386-.426-5.011zm0 0" fill="url(#f)"/><path d="M11.879 4.363s-6.496 0-8.121.426c-.871.242-1.59.961-1.832 1.848C1.5 8.262 1.5 11.629 1.5 11.629v.172c.008-.7.059-3.414.426-4.824.242-.891.96-1.606 1.832-1.848 1.625-.426 8.12-.426 8.12-.426s6.497 0 8.122.445a2.6 2.6 0 0 1 1.832 1.829c.375 1.378.422 4.015.426 4.785v-.114s.015-3.386-.426-5.011A2.607 2.607 0 0 0 20 4.809c-1.625-.446-8.121-.446-8.121-.446zm0 0" fill="#fff" fill-opacity=".392"/><path d="M11.879 18.918s-6.496 0-8.121-.43a2.663 2.663 0 0 1-1.832-1.843C1.5 15.02 1.5 11.648 1.5 11.648v-.168c.008.696.059 3.415.426 4.825.242.886.96 1.605 1.832 1.843 1.625.43 8.12.43 8.12.43s6.497 0 8.122-.445a2.607 2.607 0 0 0 1.832-1.828c.375-1.38.422-4.016.426-4.79v.118s.015 3.387-.426 5.012A2.607 2.607 0 0 1 20 18.473c-1.625.445-8.121.445-8.121.445zm0 0" fill-opacity=".235"/><path d="M9.957 7.875a.498.498 0 0 0-.512.496v6.45c0 .382.418.617.746.425l5.457-3.226a.494.494 0 0 0 0-.852l-5.457-3.223a.497.497 0 0 0-.234-.07zm0 0" fill="url(#g)"/><path d="M9.93 7.875a.497.497 0 0 0-.485.496v.246c0-.281.235-.504.512-.496a.497.497 0 0 1 .234.07l5.457 3.223c.122.074.2.184.227.305a.494.494 0 0 0-.227-.551l-5.457-3.223a.497.497 0 0 0-.234-.07H9.93zm0 0" fill="#fff" fill-opacity=".235"/><path d="M9.93 15.316a.494.494 0 0 1-.485-.492v-.246a.497.497 0 0 0 .746.426l5.457-3.227c.122-.07.2-.183.227-.3a.49.49 0 0 1-.227.546l-5.457 3.223a.497.497 0 0 1-.234.07H9.93zm0 0" fill-opacity=".235"/><path d="M9.96 7.805a.569.569 0 0 0-.585.566v6.45c0 .433.48.706.852.484l5.457-3.223a.567.567 0 0 0 0-.973l-5.457-3.226a.582.582 0 0 0-.266-.078zm-.007.14c.074.004.14.024.203.059l5.457 3.226a.422.422 0 0 1 0 .73l-5.457 3.224a.422.422 0 0 1-.64-.364V8.371c0-.242.199-.434.437-.426zm0 0" fill="#212121"/><path d="M11.879 4.277s-1.625 0-3.453.055c-1.828.05-3.852.156-4.692.375-.902.25-1.64.988-1.89 1.906v.004c-.215.824-.32 2.074-.375 3.121-.055 1.047-.055 1.89-.055 1.89s0 .849.055 1.9c.054 1.05.16 2.3.375 3.117.25.918.972 1.644 1.89 1.89.848.23 2.871.336 4.696.39 1.828.055 3.449.06 3.449.06s1.625 0 3.453-.055c1.828-.055 3.852-.157 4.691-.38a2.688 2.688 0 0 0 1.891-1.886v-.004c.215-.824.32-2.074.375-3.12.055-1.048.055-1.892.055-1.892s.004-.847-.047-1.902c-.05-1.05-.156-2.305-.383-3.133a2.688 2.688 0 0 0-1.89-1.886c-.84-.23-2.86-.336-4.692-.395-1.828-.055-3.453-.055-3.453-.055zm0 .172s1.625 0 3.45.055c1.823.055 3.866.172 4.648.387.863.23 1.539.91 1.77 1.77.218.796.327 2.046.378 3.093.05 1.047.047 1.894.047 1.894s0 .84-.055 1.883c-.05 1.043-.16 2.29-.37 3.086-.231.86-.907 1.54-1.767 1.77-.785.207-2.828.316-4.652.37-1.824.055-3.45.055-3.45.055s-1.616 0-3.44-.054c-1.825-.059-3.864-.172-4.657-.387a2.514 2.514 0 0 1-1.77-1.77c-.21-.788-.32-2.038-.37-3.081-.055-1.047-.055-1.891-.055-1.891s0-.84.055-1.883c.05-1.043.16-2.289.37-3.086.231-.86.926-1.555 1.77-1.785.785-.207 2.824-.32 4.649-.371 1.824-.055 3.449-.055 3.449-.055zm0 0" fill="#212121"/></svg>
